assets/img/payment_methods/ic-internet-bank-transfer.svg

<?xml version="1.0" encoding="UTF-8"?>
<svg viewBox="0 0 96 96" version="1.1" xmlns="http://www.w3.org/2000/svg" xmlns:xlink="http://www.w3.org/1999/xlink">
    <!-- Generator: Sketch 46.2 (44496) - http://www.bohemiancoding.com/sketch -->
    <title>Artboard</title>
    <desc>Created with Sketch.</desc>
    <defs></defs>
    <g id="Page-1" stroke="none" stroke-width="1" fill="none" fill-rule="evenodd">
        <g id="Artboard">
            <g id="ic-internet-bank-transfer">
                <g id="96" fill="#D8D8D8" opacity="0">
                    <rect id="Rectangle-4" x="0" y="0" width="96" height="96"></rect>
                </g>
                <g id="Group-3" transform="translate(11.000000, 20.000000)">
                    <g id="Group-2" transform="translate(0.000000, 28.000000)" fill="#000000">
                        <text id="INTERNET-BANK" font-family="LucidaGrande, Lucida Grande" font-size="8" font-weight="normal">
                            <tspan x="6.16210938" y="8.09375">INTERNET</tspan>
                            <tspan x="44.1347656" y="8.09375" font-family="Raanana"> </tspan>
                            <tspan x="46.2714844" y="8.09375">BANK</tspan>
                        </text>
                        <text id="TRANSFER" font-family="LucidaGrande-Bold, Lucida Grande" font-size="12" font-weight="bold">
                            <tspan x="5.07519531" y="24.09375">TRANSFER</tspan>
                        </text>
                    </g>
                    <g id="Group" transform="translate(10.000000, 0.000000)">
                        <ellipse id="Oval" fill="#000000" opacity="0.0961843297" cx="27.5" cy="21.8181818" rx="26.4" ry="2.18181818"></ellipse>
                        <g id="Group-7" fill-rule="nonzero">
                            <g id="asdsadasd">
                                <path d="M54.0688019,16.1393707 L54.1785291,16.0293223 L54.8784104,15.3104952 L55,15.1863981 L54.911032,15.0459107 L45.9786477,1.25239231 L45.776987,0.940978635 L45.480427,1.1938559 L43.8345196,2.5565834 C41.7052195,1.5146354 39.0272835,0.78410107 35.658363,0.320492746 C34.5790461,0.174205422 33.4897883,0.0780404948 32.396204,0.0324936351 C31.3967972,-0.00965257618 30.3647687,-0.0119940324 29.326809,0.0324936351 C27.0858898,0.112734892 24.8596455,0.360475897 22.6779359,0.77239379 L22.6779359,0.77239379 C21.7111507,0.964393197 20.7413998,1.19853882 19.7953737,1.47483065 C16.4836261,2.41687047 13.3929644,3.7865147 10.6494662,5.5278913 C7.88965747,7.25415287 5.5167765,9.33421668 3.62989324,11.6812382 C3.08422301,12.3415288 2.57117438,13.0275755 2.10854093,13.7206465 C1.72301305,14.2544985 1.36714116,14.7836676 1.04982206,15.294105 C0.708778173,15.7413232 0.391459075,16.20259 0.100830368,16.6661984 L0,16.8277588 L0.163107948,16.9541975 L1.2544484,17.8018046 L1.36120996,17.8837556 L1.50948992,17.8720483 C3.1168446,17.7409268 4.75088968,17.5793663 6.32858837,17.4224887 C9.39501779,17.1180994 12.5563464,16.8043443 15.702847,16.6966373 L15.7502966,16.6966373 L15.9371293,16.6966373 L16.0201661,16.5631743 C16.1506524,16.3524432 16.2811388,16.1370293 16.4027284,15.9286397 C16.5035587,15.7577134 16.6103203,15.5821042 16.7141163,15.4111779 C16.9392641,15.0360351 17.188704,14.6702846 17.4614472,14.3153764 L17.4614472,14.3153764 C17.7580071,13.8868899 18.054567,13.507574 18.3185053,13.1446483 C19.3528013,11.759002 20.6533945,10.5085914 22.1737841,9.43812313 C22.7669039,9.48026934 23.3600237,9.53880575 23.9531435,9.60904943 L23.9531435,9.60904943 C24.6144721,9.67695166 25.2876631,9.76124408 25.9638197,9.85724379 C28.4065367,10.2290002 30.8112308,10.7423891 33.158363,11.393239 L31.5954923,12.6833814 L31.4412811,12.8121615 L31.5450771,12.9690391 L32.2775801,14.0695235 L32.3546856,14.1865963 L32.5207592,14.200645 L53.8967972,16.1300049 L54.0717675,16.1463951 L54.0688019,16.1393707 Z" id="Shape" fill="#ADE60D"></path>
                                <path d="M2.24903958,13.8604669 C2.71545314,13.1694679 3.22056911,12.4971447 3.76438748,11.843497 C7.53207195,7.17128279 13.1754426,3.61505168 19.8050445,1.73530337 C20.7438259,1.47073171 21.6984851,1.2427332 22.6690223,1.05130782 C25.8311443,0.451698986 29.0860021,0.208028735 32.3356915,0.327626517 C33.4255734,0.372203157 34.5111373,0.467303851 35.5866932,0.612430126 C38.4417397,1.00228425 41.4218246,1.6652697 43.8987783,2.91420356 L45.7296997,1.41081401 L54.7027027,15.1747655 L31.8057663,12.8706576 L34.9704319,10.2700738 L34.6727211,10.1813645 C31.9526823,9.39540024 29.1559889,8.7833314 26.3100252,8.35115115 C25.4704808,8.22975944 24.6279593,8.11770556 23.7854377,8.0523408 C22.9429162,7.98697604 22.162914,7.92861464 21.3442093,7.90060117 C20.5255046,7.8725877 19.7008458,7.87025325 18.879164,7.90060117 C13.7257903,8.0103206 8.45928655,9.30127466 4.6456114,12.0746082 C4.22838947,12.376108 3.8309315,12.6940021 3.45476826,13.0270661 C3.07319502,13.3629713 2.71445265,13.7144047 2.38003233,14.0799057 C1.94718573,14.5338906 1.54952131,15.0078612 1.18918919,15.4992548 C1.49285419,14.936651 1.86201556,14.3927228 2.24903958,13.8604669 Z" id="Shape" fill="#ADE60D"></path>
                                <polygon id="Shape" fill="#8BB407" points="54.00026 15.7973174 32.5459944 13.9016025 31.8108108 12.8166915 54.7027027 15.0901674"></polygon>
                                <path d="M1.26332861,15.2911277 L1.22420585,15.3541253 C1.36264024,15.1619019 1.50609037,14.9729092 1.65455625,14.7871471 L1.78697175,14.6102694 L1.82308507,14.5666557 C2.02371463,14.3340492 2.22434419,14.1062888 2.42497374,13.8833743 C2.76302634,13.5040128 3.12566514,13.1392522 3.51138279,12.7906088 C3.89163168,12.4449142 4.29340659,12.1149649 4.71516013,11.8020316 C8.58530427,8.91383532 13.8969718,7.58361743 19.1033088,7.4697372 C19.9359214,7.44550737 20.7665278,7.44550737 21.5951279,7.4697372 C22.4237279,7.49396704 23.2463091,7.54646501 24.0628714,7.62723113 C24.915547,7.70638192 25.7662163,7.80976254 26.6148794,7.937373 C29.4675846,8.38157252 32.271369,9.00952889 34.9991885,9.81518516 L35.3783784,9.93148836 L34.1324688,11.012139 C31.5831871,10.2749213 28.9672991,9.69654788 26.3079161,9.2821288 C25.6257756,9.1803635 24.9396226,9.09394376 24.2494569,9.02286958 C20.7503542,8.56135658 17.170566,8.68674063 13.7344618,9.39116306 C13.2489383,9.49615901 12.7694337,9.61407753 12.2959479,9.74491864 C11.4635557,9.94482131 10.6507726,10.1942683 9.86431769,10.4911975 C9.60349927,10.5897322 9.34468714,10.6939205 9.08788131,10.8037624 C8.74681106,10.9475261 8.41175971,11.100174 8.08272723,11.2617063 C6.67453355,11.89584 5.41882242,12.727951 4.37509303,13.7186115 C4.0280039,14.0416759 3.70097772,14.3817012 3.3940145,14.7386875 C2.61859689,15.6338932 2.00551877,16.3101321 1.45787,17.3085004 L0.430214154,16.5521741 C0.731158488,16.0659621 0.92025207,15.7498792 1.26332861,15.2911277 Z" id="Shape" fill="#8BB407"></path>
                                <path d="M2.52353722,15.726524 L2.52353722,15.726524 L2.63876508,15.5729349 L2.63876508,15.5729349 L2.76581118,15.4101764 L2.76581118,15.4101764 L2.87808448,15.2680493 L2.91649377,15.217617 L2.96376673,15.1603077 C3.70052137,14.3244438 4.52466961,13.5370314 5.42787019,12.80604 L5.6583259,12.6409891 L5.6583259,12.6409891 C5.80014481,12.5416529 5.94393342,12.4446091 6.08969174,12.3498577 L6.08969174,12.3498577 C6.23741976,12.2551062 6.38810235,12.1626471 6.54173949,12.0724804 L6.54173949,12.0724804 C6.77613463,11.934938 7.01742373,11.8035086 7.26560681,11.6781922 L7.26560681,11.6781922 C7.5157596,11.5513475 7.77379122,11.43138 8.03970166,11.3182895 L8.16083864,11.2609802 C8.57743167,11.0730056 8.99993382,10.891908 9.43129966,10.7245648 L9.78880148,10.5893147 C10.5609139,10.3083913 11.3588744,10.0723907 12.1760864,9.88326365 C12.6409372,9.75947547 13.1116972,9.64791329 13.5883663,9.5485771 C16.332482,8.99965382 19.1779008,8.82130138 22,9.02133117 C20.4195043,10.0989834 19.070122,11.3649231 18.0024797,12.7716544 C17.7070236,13.149896 17.4115676,13.5350148 17.1427025,13.9178412 C16.8640387,14.2724768 16.6095954,14.638233 16.3804259,15.0135958 C16.1470157,15.3872527 15.9254236,15.7677867 15.6890588,16.1414436 C10.9263073,16.3019098 6.21378328,16.9139735 1.48648649,17.2876304 C1.79660527,16.753496 2.14276834,16.2324054 2.52353722,15.726524 L2.52353722,15.726524 Z" id="Shape" fill="#35342F"></path>
                                <path d="M7.72910057,8.04677054 C10.0528287,6.41224492 12.7438544,5.19195985 15.6402138,4.45936008 C23.0806773,2.59725084 30.6980092,3.02540929 37.8656757,5.12819932 C44.0111028,6.93203848 49.2571992,10.1444936 53.6609223,14.0536563 L53.8108108,14.3070045 L33.4859347,12.0952747 L35.6952907,10.1368932 L36.4507286,9.46805392 L35.4254915,9.15136868 L35.1107257,9.05509636 C32.3398208,8.19174451 29.4905826,7.51985559 26.5910652,7.04604517 C25.7157166,6.90923714 24.8463635,6.79269697 24.0039903,6.71669251 C23.1616171,6.64068805 22.3192439,6.577351 21.4918596,6.5494827 C20.6644753,6.5216144 19.7891266,6.51654744 18.952749,6.5494827 L18.5000858,6.56215011 C15.8889014,6.6483105 13.3092434,7.07561877 10.8527762,7.82889109 C8.99287109,8.39616346 7.23997154,9.18807175 5.64864865,10.1799624 C6.29616724,9.43775163 6.99066343,8.72564981 7.72910057,8.04677054 Z" id="Shape" fill="#ADE60D"></path>
                                <path d="M2.67567568,16.6915052 C3.86964073,16.5881641 5.06360577,16.4618583 6.23667644,16.3585172 C9.22158906,16.0714585 12.3020189,15.7729174 15.3764789,15.6557975 L15.5734831,15.3319953 C15.6779551,15.1643531 15.782427,14.9898214 15.8928688,14.8175862 C16.1318963,14.4291416 16.3969135,14.0504825 16.6868555,13.6831303 C16.9853468,13.2582834 17.2838381,12.8770695 17.5644198,12.5234132 C18.405764,11.4499533 19.3944596,10.4490824 20.5135135,9.53800298 C19.9374254,9.53800298 19.3673071,9.53800298 18.8031586,9.5517818 C17.1446101,9.60388739 15.4982787,9.79407286 13.8929773,10.1190097 C13.4303159,10.2154615 12.9676544,10.3233955 12.5139477,10.4428119 L12.5139477,10.4428119 L12.5139477,10.4428119 C11.7215754,10.6277148 10.9483113,10.8580055 10.2006404,11.1317528 L9.85439054,11.260355 L9.85439054,11.260355 C9.43351786,11.4234044 9.01563009,11.597936 8.60968197,11.7816536 L8.60968197,11.7816536 L8.56789319,11.8000254 L8.49327038,11.8344724 L8.49327038,11.8344724 L8.49327038,11.8344724 C8.24552263,11.94011 7.99777488,12.0641193 7.75599696,12.1743499 C7.51421904,12.2845804 7.2933355,12.4154792 7.06946706,12.5463779 L7.06946706,12.5463779 C6.92619125,12.6290508 6.7709758,12.7186131 6.63665473,12.8104719 L6.63665473,12.8104719 L6.61874525,12.8104719 C6.48143927,12.8977377 6.34413329,12.9895965 6.21279713,13.0814553 L6.21279713,13.0814553 L6.21279713,13.0814553 L6.00086834,13.2330223 C5.13347839,13.9315153 4.34182548,14.6834383 3.63383263,15.4812658 L3.59502876,15.5271952 L3.5562249,15.5754211 L3.44578313,15.7132092 L3.44578313,15.7132092 L3.44578313,15.7132092 L3.44578313,15.7132092 L3.44578313,15.7132092 L3.32340171,15.8670727 L3.32340171,15.883148 L3.32340171,15.883148 L3.20997504,16.0324185 L3.20997504,16.0324185 L3.20997504,16.0324185 L3.20997504,16.0324185 C3.05873946,16.2345078 2.91148377,16.4419555 2.76820797,16.6547617 L2.67567568,16.6915052 Z" id="Shape" fill="#35342F"></path>
                                <path d="M16.2215455,9.74791206 C17.075803,9.64876772 17.9364398,9.58478971 18.7997172,9.55625594 C19.3650008,9.53800298 19.9392572,9.53343974 20.5135135,9.54256622 C19.3922607,10.4477888 18.4015803,11.4421835 17.5584861,12.5086728 C17.2743488,12.8623239 16.9872206,13.2387913 16.679156,13.6608911 C16.3886601,14.0266633 16.1231119,14.4036324 15.8835717,14.7902932 C15.7758986,14.9614147 15.6682256,15.1348178 15.5635434,15.3013761 L15.3661428,15.6230846 C13.1079993,15.7097862 10.846865,15.8900342 8.62162162,16.09538 C10.443091,13.6586094 13.1528631,11.5138863 16.2215455,9.74791206 Z" id="Shape" fill="#35342F"></path>
                            </g>
                        </g>
                    </g>
                </g>
            </g>
        </g>
    </g>
</svg>

<svg viewBox="0 0 96 96" xmlns="http://www.w3.org/2000/svg"><title>Artboard</title><g fill="none" fill-rule="evenodd"><g fill="#000"><text font-family="LucidaGrande, Lucida Grande" font-size="8" transform="translate(11 48)"><tspan x="6.162" y="8.094">INTERNET</tspan> <tspan x="44.135" y="8.094" font-family="Raanana"> </tspan> <tspan x="46.271" y="8.094">BANK</tspan></text><text font-family="LucidaGrande-Bold, Lucida Grande" font-size="12" font-weight="bold" transform="translate(11 48)"><tspan x="5.075" y="24.094">TRANSFER</tspan></text></g><g transform="translate(21 20)"><ellipse fill="#000" opacity=".096" cx="27.5" cy="21.818" rx="26.4" ry="2.182"/><g fill-rule="nonzero"><path d="M54.069 16.14l.11-.11.7-.72.121-.124-.089-.14-8.932-13.794-.202-.311-.297.253-1.645 1.363C41.705 1.515 39.027.784 35.658.32a36.262 36.262 0 0 0-6.332-.288c-2.24.08-4.466.328-6.648.74-.967.192-1.937.427-2.883.703-3.311.942-6.402 2.312-9.146 4.053-2.76 1.726-5.132 3.806-7.02 6.153a25.06 25.06 0 0 0-1.52 2.04 27.542 27.542 0 0 0-1.06 1.573c-.34.447-.658.909-.948 1.372L0 16.828l.163.126 1.091.848.107.082.148-.012c1.608-.131 3.242-.293 4.82-.45 3.066-.304 6.227-.618 9.374-.725H15.937l.083-.134c.13-.21.261-.426.383-.634.1-.171.207-.347.311-.518.225-.375.475-.74.747-1.096.297-.428.594-.807.858-1.17 1.034-1.386 2.334-2.636 3.855-3.707.593.042 1.186.1 1.78.171.66.068 1.334.152 2.01.248 2.443.372 4.847.885 7.194 1.536l-1.563 1.29-.154.13.104.156.733 1.1.077.118.166.014 21.376 1.929.175.016-.003-.007z" fill="#ADE60D"/><path d="M2.249 13.86c.466-.69.972-1.363 1.515-2.017 3.768-4.672 9.411-8.228 16.041-10.108a36.82 36.82 0 0 1 2.864-.684c3.162-.6 6.417-.843 9.667-.723 1.09.044 2.175.14 3.25.284 2.856.39 5.836 1.053 8.313 2.302l1.83-1.503 8.974 13.764-22.897-2.304 3.164-2.6-.297-.09a65.643 65.643 0 0 0-8.363-1.83 38.488 38.488 0 0 0-2.525-.299 55.704 55.704 0 0 0-2.44-.151 34.717 34.717 0 0 0-2.466 0c-5.153.11-10.42 1.4-14.233 4.174-.418.301-.815.619-1.191.952-.382.336-.74.687-1.075 1.053-.433.454-.83.928-1.19 1.42.303-.563.672-1.107 1.059-1.64z" fill="#ADE60D"/><path fill="#8BB407" d="M54 15.797l-21.454-1.895-.735-1.085 22.892 2.273zM1.263 15.291l-.039.063c.139-.192.282-.381.43-.567l.133-.177.036-.043c.2-.233.401-.46.602-.684.338-.379.7-.744 1.086-1.092.38-.346.782-.676 1.204-.989 3.87-2.888 9.182-4.218 14.388-4.332a42.72 42.72 0 0 1 2.492 0 35.65 35.65 0 0 1 2.468.157c.853.08 1.703.183 2.552.31a64.825 64.825 0 0 1 8.384 1.878l.38.116-1.247 1.081a63.214 63.214 0 0 0-7.824-1.73 45.623 45.623 0 0 0-2.059-.26 31.827 31.827 0 0 0-10.515.37c-.485.104-.965.222-1.438.353a20.32 20.32 0 0 0-4.213 1.517c-1.408.634-2.664 1.466-3.708 2.457-.347.323-.674.663-.981 1.02-.775.895-1.388 1.571-1.936 2.57L.43 16.552c.301-.486.49-.802.833-1.26z"/><path d="M2.524 15.727l.115-.154.127-.163.112-.142.038-.05.048-.058a20.323 20.323 0 0 1 2.464-2.354l.23-.165a13.4 13.4 0 0 1 .883-.569c.235-.137.476-.268.725-.394.25-.127.508-.247.774-.36l.12-.057c.417-.188.84-.37 1.271-.536l.358-.136a20.51 20.51 0 0 1 2.387-.706c.465-.124.936-.235 1.412-.334A31.612 31.612 0 0 1 22 9.02c-1.58 1.078-2.93 2.344-3.998 3.75-.295.379-.59.764-.86 1.147-.278.354-.532.72-.762 1.096-.233.373-.455.754-.69 1.127-4.764.16-9.476.773-14.204 1.147.31-.535.657-1.056 1.038-1.561z" fill="#35342F"/><path d="M7.73 8.047c2.323-1.635 5.014-2.855 7.91-3.588 7.44-1.862 15.058-1.434 22.226.67 6.145 1.803 11.391 5.015 15.795 8.925l.15.253-20.325-2.212 2.21-1.958.755-.669-1.026-.317-.314-.096a62.574 62.574 0 0 0-8.52-2.009 40.38 40.38 0 0 0-2.587-.33 44.93 44.93 0 0 0-2.512-.167 35.355 35.355 0 0 0-2.54 0l-.452.013c-2.611.086-5.19.514-7.647 1.267a21.94 21.94 0 0 0-5.204 2.351 27.096 27.096 0 0 1 2.08-2.133z" fill="#ADE60D"/><path d="M2.676 16.692c1.194-.104 2.388-.23 3.56-.333 2.986-.288 6.066-.586 9.14-.703l.197-.324c.105-.168.21-.342.32-.514.239-.389.504-.768.794-1.135.298-.425.597-.806.877-1.16a18.888 18.888 0 0 1 2.95-2.985c-.577 0-1.147 0-1.71.014a29.437 29.437 0 0 0-4.911.567c-.463.096-.925.204-1.38.324-.791.185-1.565.415-2.312.689l-.347.128c-.42.163-.838.338-1.244.522l-.042.018-.075.034c-.247.106-.495.23-.737.34-.242.11-.463.241-.687.372-.143.083-.298.173-.432.264h-.018c-.138.088-.275.18-.406.271L6 13.233a19.573 19.573 0 0 0-2.367 2.248l-.039.046-.039.048-.11.138-.123.154v.016l-.113.15c-.151.202-.299.409-.442.622l-.092.037z" fill="#35342F"/><path d="M16.222 9.748c.854-.1 1.714-.163 2.578-.192.565-.018 1.14-.023 1.714-.013a18.85 18.85 0 0 0-2.956 2.966c-.284.353-.57.73-.879 1.152-.29.366-.556.743-.795 1.13-.108.17-.216.344-.32.51l-.198.322c-2.258.087-4.52.267-6.744.472 1.821-2.436 4.53-4.581 7.6-6.347z" fill="#35342F"/></g></g></g></svg>
